packages/core/src/svgs/tokens/mono/ZNN.svg

<svg width="24" height="24" viewBox="0 0 24 24" fill="none" xmlns="http://www.w3.org/2000/svg">
<path fill-rule="evenodd" clip-rule="evenodd" d="M5.75 2H18.25V4.39999L10.6187 9.49994H18.25V22H15.9875L8.24998 15.375V22H5.75V9.42498L13.5687 4.49998H5.75V2ZM8.24998 11.9999H15.75V18.2499L8.24998 11.9999Z" fill="white"/>
</svg>

<svg xmlns="http://www.w3.org/2000/svg" width="24" height="24" fill="none" viewBox="0 0 24 24">
    <path fill="#fff" fill-rule="evenodd" d="M5.75 2h12.5v2.4l-7.631 5.1h7.631V22h-2.262L8.25 15.375V22h-2.5V9.425L13.569 4.5H5.75zm2.5 10h7.5v6.25z" clip-rule="evenodd"/>
</svg>
